X: 22120
T: Korolenko
R: jig
M: 6/8
K: Gmajor
BA|:G2G GFG|DED DBA|G2G GFG|G2E EAB|
c3 cBc|d2d dcB|1 ABA AGA|BGE DBA:|2 AGE DBA|G3 G2D||
|:E3 E2D|E2F G2E|DGG AGA|BAB dBD|
EEE E2D|E2F G2E|DGG FGA|1 BGF G2D:|2 BGF G3||

